X:180
T:Old Copperplate
M:4/4
L:1/8
R:Reel
K:ADor
"Ami"A2 EA cAA2|aged cAFA|"G"G2 DG BGBd|gedc BAGB|
"Am"A2 EA cAA2|aged "G"cAGB|
"Ami"ABcd "F"efge|1 "G"aged "Ami"cA "Emi"BG:|2 "G"aged "Ami"cA A2||
"Ami"ageg a2 eg|aged cA A2|"G"gfef g2 ef|gfge dBG2|
"Ami"ageg a2 eg|aged "G"cAGB|"Ami"ABcd "F"efge|1 "G"aged "Ami"cA A2:|2 "
G"aged "A"cA "(Emi)"BG||
